X:1282
T:Dance
C:anon., arr. Frank Nordberg
N:17th Century
Z:Transcribed by Frank Nordberg - http://www.musicaviva.com
F:http://abc.musicaviva.com/tunes/anon/anon-dance01/anon-dance01-pno2.abc
V:1 Program 1 6 %Harpsichord
V:2 Program 1 6 bass %Harpsichord
M:3/4
L:1/8
K:C
V:1
G2 c2 G2|E2 DE C2|G2 c2 e2|dc BA G2|d2cB AG|^F2 dc d2|B2 cB A2|G6:|
V:2
C,4C,2|C,2G,,2C,2|G,2E,2C,2|D,4G,2|B,2G,4|D,4D,2|G,2C,2D,2|G,2D,2G,,2:|
%
V:1
|:d2 B2 c2|dcBA G2|c2 Ac BA|^G2 ^F2 E2|BBBB c2|BBBB c2|E2 A2 ^G2|A6|
V:2
|:B,,2 G,F, E,2|D,4 G,2|A,2C,2D,2|E,2B,,2 E,,2|E,2 E,,2 A,,2|E,2 E,,2 A,,2|E,4E,2|A,,2 E,2 A,,2|
%
V:1
G2 c2 G2|E2 DE C2|G2 c2 e2|dcBA G2|dddd e2|dddd e2|G2 c2 B2|c6:|]
V:2
C,4 C,2|C,2 G,,2 C,2|G,2 E,2 C,2|D,4 G,2|G,F,E,D, C,2|B,A,G,F, E,2|E,2 F,2 G,2|C,6:|]
W:
W:
W:  From Musica Viva - http://www.musicaviva.com
W:  the Internet center for free sheet music downloads.
